icons/camcoder-off.svg

<svg width="24" height="24" viewBox="0 0 24 24" fill="none" xmlns="http://www.w3.org/2000/svg">
<g clip-path="url(#clip0)">
<path fill-rule="evenodd" clip-rule="evenodd" d="M0.292893 0.292893C0.683417 -0.0976311 1.31658 -0.0976311 1.70711 0.292893L23.7071 22.2929C24.0976 22.6834 24.0976 23.3166 23.7071 23.7071C23.3166 24.0976 22.6834 24.0976 22.2929 23.7071L17 18.4142V19C17 19.5523 16.5523 20 16 20H2C1.44772 20 1 19.5523 1 19V5C1 4.44772 1.44772 4 2 4H2.58579L0.292893 1.70711C-0.0976311 1.31658 -0.0976311 0.683417 0.292893 0.292893ZM4.58579 6H3V18H15V16.4142L4.58579 6ZM15 6H10C9.44771 6 9 5.55228 9 5C9 4.44772 9.44771 4 10 4H16C16.5523 4 17 4.44772 17 5V9.13148L21.4453 6.16795C21.7522 5.96338 22.1467 5.94431 22.4719 6.11833C22.797 6.29234 23 6.6312 23 7V17C23 17.5523 22.5523 18 22 18C21.4477 18 21 17.5523 21 17V8.86852L16.5547 11.8321C16.2478 12.0366 15.8533 12.0557 15.5281 11.8817C15.203 11.7077 15 11.3688 15 11V6ZM5 9C5 8.44772 5.44772 8 6 8H6.00945C6.56174 8 7.00945 8.44772 7.00945 9C7.00945 9.55229 6.56174 10 6.00945 10H6C5.44772 10 5 9.55229 5 9Z" fill="black"/>
</g>
<defs>
<clipPath id="clip0">
<rect width="24" height="24" fill="white"/>
</clipPath>
</defs>
</svg>

<svg
  width="24"
  height="24"
  viewBox="0 0 24 24"
  xmlns="http://www.w3.org/2000/svg"
>
  <g clip-path="url(#a)">
    <path
      fill-rule="evenodd"
      clip-rule="evenodd"
      d="M.293.293a1 1 0 0 1 1.414 0l22 22a1 1 0 0 1-1.414 1.414L17 18.414V19a1 1 0 0 1-1 1H2a1 1 0 0 1-1-1V5a1 1 0 0 1 1-1h.586L.293 1.707a1 1 0 0 1 0-1.414zM4.586 6H3v12h12v-1.586L4.586 6zM15 6h-5a1 1 0 1 1 0-2h6a1 1 0 0 1 1 1v4.131l4.445-2.963A1 1 0 0 1 23 7v10a1 1 0 1 1-2 0V8.869l-4.445 2.963A1 1 0 0 1 15 11V6zM5 9a1 1 0 0 1 1-1h.01a1 1 0 1 1 0 2H6a1 1 0 0 1-1-1z"
    />
  </g>
  <defs>
    <clipPath id="a">
      <rect width="24" height="24" />
    </clipPath>
  </defs>
</svg>
